symbols/web/loyalty/materialsymbolsrounded/loyalty_wght100grad200_40px.svg

<svg xmlns="http://www.w3.org/2000/svg" height="40" width="40"><path d="M21.75 27.792q.333 0 .625-.125t.458-.375l4.125-4.25q.417-.375.584-.875.166-.5.166-1.084 0-1.125-.77-1.937-.771-.813-1.896-.813-.834 0-1.667.396-.833.396-1.625 1.479-.792-1.041-1.646-1.458-.854-.417-1.687-.417-1.125 0-1.917.813-.792.812-.792 1.937 0 .584.188 1.084.187.5.562.875l4.209 4.208q.208.292.5.417.291.125.583.125Zm-.292 7.583q-.333 0-.666-.125-.334-.125-.584-.375l-15.083-15q-.292-.292-.396-.646-.104-.354-.104-.687V6.333q0-.75.5-1.229.5-.479 1.208-.479h12.209q.333 0 .666.125.334.125.584.375l15.083 14.958q.542.542.542 1.292t-.542 1.292L22.667 34.875q-.209.208-.542.354-.333.146-.667.146Zm0-1.708 12.25-12.209L18.583 6.333H6.333v12.25ZM10.625 12.292q.708 0 1.208-.521t.5-1.229q0-.709-.5-1.188t-1.208-.479q-.75 0-1.229.479-.479.479-.479 1.188 0 .708.458 1.229.458.521 1.25.521ZM6.333 6.333Z"/></svg>

<svg xmlns="http://www.w3.org/2000/svg" height="40" width="40"><path d="M21.75 27.792Q22.083 27.792 22.375 27.667Q22.667 27.542 22.833 27.292L26.958 23.042Q27.375 22.667 27.542 22.167Q27.708 21.667 27.708 21.083Q27.708 19.958 26.938 19.146Q26.167 18.333 25.042 18.333Q24.208 18.333 23.375 18.729Q22.542 19.125 21.75 20.208Q20.958 19.167 20.104 18.75Q19.25 18.333 18.417 18.333Q17.292 18.333 16.5 19.146Q15.708 19.958 15.708 21.083Q15.708 21.667 15.896 22.167Q16.083 22.667 16.458 23.042L20.667 27.25Q20.875 27.542 21.167 27.667Q21.458 27.792 21.75 27.792ZM21.458 35.375Q21.125 35.375 20.792 35.25Q20.458 35.125 20.208 34.875L5.125 19.875Q4.833 19.583 4.729 19.229Q4.625 18.875 4.625 18.542V6.333Q4.625 5.583 5.125 5.104Q5.625 4.625 6.333 4.625H18.542Q18.875 4.625 19.208 4.75Q19.542 4.875 19.792 5.125L34.875 20.083Q35.417 20.625 35.417 21.375Q35.417 22.125 34.875 22.667L22.667 34.875Q22.458 35.083 22.125 35.229Q21.792 35.375 21.458 35.375ZM21.458 33.667 33.708 21.458 18.583 6.333H6.333V18.583ZM10.625 12.292Q11.333 12.292 11.833 11.771Q12.333 11.25 12.333 10.542Q12.333 9.833 11.833 9.354Q11.333 8.875 10.625 8.875Q9.875 8.875 9.396 9.354Q8.917 9.833 8.917 10.542Q8.917 11.25 9.375 11.771Q9.833 12.292 10.625 12.292ZM6.333 6.333Z"/></svg>
